!!!SOCIAL_FUNCTION:	songs connected with the cure of the sick
!!!PDT:	1909
!!!OTL: No_80_Healing_Song.krn
!!!REG: Great_Lakes
!!!LANG: Non-Tone
!!!LING_GROUP: Algonquin
**kern
*staff1
*clefF4
*k[b-e-a-d-]
*M3/4
8c\
=1
16.c\LL
32c\JK
8d-\J
2c\
=2||
*M2/4
8B-\L
8B-\J
8.B-\L
16B-\Jk
=3||
*M3/4
16.B-\LL
32B-\JK
8c\J
2B-\
=4||
*M2/4
8B-\L
8G-\J
8.G-\L
16G-\Jk
=5||
*M3/4
16.F\LL
32G-\JK
8G-\J
2G-\
=6||
*M2/4
8G-\L
8F\J
8.F\L
16F\Jk
=7||
*M3/4
16.E-\LL
32F\JK
8F\J
2F\
=8||
*M2/4
(16F/LL
16BB-/J)
8BB-/J
8.BB-/L
16BB-/Jk
=9||
*M3/4
16.BB-/LL
32BB-/JK
8BB-/J
2BB-/
=10||
*M2/4
8BB-/L
8FF/J
4FF/
=11
[2FF/
=12
4FF/]
8c\L
8c\J
=13
4.c\
8B-\
=14
4B-\
8B-\L
8B-\J
=15
4G-\
8F\L
8F\J
=16
4F\
8F\L
8F\J
=17
2F\
=18||
*M3/4
16.B-\LL
32B-\JK
8c\J
2B-\
=19||
*M2/4
8B-\L
8G-\J
8.G-\L
16G-\Jk
=20||
*M3/4
16.F\LL
32G-\JK
8G-\J
2G-\
=21||
*M2/4
8G-\L
8F\J
8.F\L
16F\Jk
=22||
*M3/4
16.E-\LL
32F\JK
8F\J
2F\
=23||
*M2/4
(16F/LL
16BB-/J)
8BB-/J
8.BB-/L
16BB-/Jk
=24||
*M3/4
16.BB-/LL
32BB-/JK
8BB-/J
2BB-/
=25||
*M2/4
8BB-/L
8FF/J
4FF/
=26
2FF/
==
*-
